!! 00046] TT[KA
!! NN
!!!OTL: Xiu hua
!!!ARE: Asia, China,ÿHubei, Tianmen
!! Ethnic Group: Han
!! I, 358
!!!SCT: C0100
!!!YEM: Copyright 1995, estate of Helmut Schaffrath.
**kern
*ICvox
*Ivox
*M2/4
*k[b-e-]
*B-:
{8cc
16dd
16ff
16dd
16cc
16b-
16g
=1
2cc
=2
16g
16b-
16cc
16dd
16cc
16b-
16g
16d
=3
2f}
=4
{8g
16g
16b-
8cc
8dd
=5
16ff
16gg
16ff
16dd
8.cc
16b-
=6
8b-
16b-
16g
4b-}
=7
{8.ff
16dd
16cc
16dd
8b-
=8
16g
16b-
8f
8.b-
16g
=9
2f}
=10
{8f
16f
16g
8b-
16g
16f
=11
8d
4f
8g
=12
8b-
8cc
8ff
16ff
16dd
=13
16cc
16dd
4.b-}
=14
{8g
4f
8g
=15
8b-
16g
16b-
8cc
8dd
=16
16cc
16dd
16cc
16b-
4g
=17
8f
16g
16b-
16g
16f
16d
16c
=18
2f}
=19
{8cc
16dd
16ff
16dd
16cc
16b-
16g
=20
2cc
=21
16g
16b-
16cc
16dd
16cc
16b-
16g
16d
=22
2f}
=23
{8g
16g
16b-
8cc
8dd
=24
16ff
16gg
16ff
16dd
4cc
=25
8b-
16g
16b-
4b-}
=26
{8.ff
16dd
16cc
16dd
8b-
=27
16g
16b-
8f
8.b-
16g
=28
2f}
==
!!!AGN: Xiaodiao. Xin minge
!! neues Volkslied
!!    Phrasen 2 und 7: Phrasenende jeweils schon auf der Sekunde im zweiten
!!    Takt?,  im Text ein ",")
!!    Das Lied besteht aus 3 Teilen: Die Phrasen 1-3 werden zweimal wieder-
!!    holt,  Zahl der Strophen), Phrasen 4 und 5 fuenfmal, 6-8 viermal.
!!    Vor-, Zwischen- und Nachspiele weggelassen. Eine Verzierung im Mittel-
!!    teil.
!!!ONB: ESAC (Essen Associative Code) Database: CHINA
!!!AMT: simple duple
!!!AIN: vox
!!!EED: Helmut Schaffrath
!!!EEV: 1.0
*-
